X: 1
T:Harvest Home
M:4/4
L:1/8
C:Trad
R:Hornpipe
K:D
A2 | FADA FADA | defe dcBA | e2f2g2f2 | edcB AGFE | FADA FADA | defe dcB
A | e2f2 gece | d2f2d2 :||:cd | eAAA fAAA | gAAA fAAA | eAfA gAfA | edcB
 AGFE
| DAFA DAFA | defe dcBA | e2f2 gece | d2f2d2:|
